svg/300/outlined/charger.svg

<svg xmlns="http://www.w3.org/2000/svg" width="48" height="48" viewBox="0 -960 960 960"><path d="m469.308-191.616 138.844-343.46h-113.46v-238.846L355.848-429.693h113.46v238.077Zm10.759 91.615q-80.067 0-149.435-29.112-69.368-29.112-120.874-80.595-51.506-51.484-80.631-120.821-29.126-69.338-29.126-149.404 0-79.451 29.112-148.82 29.112-69.368 80.595-120.874 51.484-51.506 120.821-80.939 69.338-29.433 149.404-29.433 79.451 0 148.82 29.42 69.368 29.42 120.874 80.903 51.506 51.483 80.939 120.82 29.433 69.338 29.433 148.789 0 80.067-29.42 149.435-29.42 69.368-80.903 120.874-51.483 51.506-120.82 80.631-69.338 29.126-148.789 29.126ZM480-480Zm0 334.615q141.538 0 238.077-96.538Q814.615-338.462 814.615-480t-96.538-238.077Q621.538-814.615 480-814.615t-238.077 96.538Q145.385-621.538 145.385-480t96.538 238.077Q338.462-145.385 480-145.385Z"/></svg>

<svg xmlns="http://www.w3.org/2000/svg" width="48" height="48" viewBox="0 -960 960 960"><path d="m469.31-191.62 138.84-343.46H494.69v-238.84L355.85-429.69h113.46v238.07ZM480.07-100q-80.07 0-149.44-29.11-69.37-29.12-120.87-80.6-51.51-51.48-80.63-120.82Q100-399.87 100-479.93q0-79.45 29.11-148.82 29.12-69.37 80.6-120.88 51.48-51.5 120.82-80.94Q399.87-860 479.93-860q79.45 0 148.82 29.42 69.37 29.42 120.88 80.9 51.5 51.49 80.94 120.82Q860-559.52 860-480.07q0 80.07-29.42 149.44t-80.9 120.87q-51.49 51.51-120.82 80.63Q559.52-100 480.07-100ZM480-480Zm0 334.61q141.54 0 238.08-96.53 96.53-96.54 96.53-238.08 0-141.54-96.53-238.08-96.54-96.53-238.08-96.53-141.54 0-238.08 96.53-96.53 96.54-96.53 238.08 0 141.54 96.53 238.08 96.54 96.53 238.08 96.53Z"/></svg>
